**kern	**kern	**dynam
*part1	*part1	*part1
*staff2	*staff1	*
*I"Piano	*	*
*clefF4	*clefG2	*
*k[b-e-a-d-]	*k[b-e-a-d-]	*
=1	=1	=1
4BBB- 4BB-	4F< 4B-< 4d-<	>
8BBB- 8BB-	8F< 8B-< 8d-<	.
4BBB- 4BB-	4F< 4B-< 4d-<	.
8BBB- 8BB-	8F< 8B-< 8d-<	.
=	=	=
4CC	4G< 4B-< 4c< 4en<	.
8CC	8G< 8B-< 8c< 8e<	.
4CC	4G< 4B-< 4e<	.
8CC	8G< 8B-< 8e<	.
=	=	=
4FF 4F	4A- 4c	.
8FF 8F	8A- 8c	.
4FF 4F	4A- 4c	.
8FF 8F	8A- 8c	.
=	=	=
4CC 4C	4c 4en 4g	] mf
8r	8r	.
4CC 4C	4c 4e 4g	.
8r	8r	.
=	=	=
2FF; 2F	2A-; 2c 2f	.
8r;	8r;	.
8r	8r	.
=||	=||	=||
*M3/8	*M3/8	*
8FFL	8.fL	mp
8C 8E- 8F	.	.
.	32anLL	.
.	32ccJJJ	.
8CJ 8E- 8F	16ff	.
.	16r	.
=	=	=
8FFL	4ff 4fff	.
8C 8E- 8F	.	.
8CJ 8E- 8F	8r	.
=	=	=
*-	*-	*-
!!!system-decoration: {(s1,s2)}
!!!RDF**kern: < = below
